X:1
T:Y'a dix marins sur mer
M:3/4
L:1/8
K:Am
|: "Am"EA/B/ cB "C"cB | "Am"EA/B/ cB "C"c2 | "Am"EA/B/ cB "C"c2 :|
|: "F"cd/e/ "Am"cA cB | "G"EA/B/ cB/A/ "Em"B2 | "F"cd/e/ cA "Am"cB | "G"EA/B/ c>B "Am"A2 :|
<end>
<start>
